X: 100
T:Yellow Rose of Texas
L:1/8
M:2/4
S:https://tunearch.org/wiki/Yellow_Rose_of_Texas
K:D 
[Af][A/f/][A/g/] [Aa][A/a/][A/g/]|[A/f/][A/e/][A/f/][A/g/] [Aa][A/a/][A/g/]|\
[Ae][A/e/][A/f/] [A/g/][A/f/][A/e/][A/f/]|[A/g/][A/f/][A/e/][A/f/] [Ag][A/g/][A/g/]|
[Af][A/f/][A/g/] [Aa][A/a/][A/g/]|[A/f/][A/e/][A/f/][A/g/] [Aa][A/a/][A/f/]|\
[Ae][Ag] (3[A/f/][A/g/][A/f/][Ae]|[Dd][D2d2]||
B|:[DA][DA] [D>B>]B|A(F F)F|[DA]A de|[A2f2] fe/f/|gf ed|
f/g/e dB|1 AA cd|e3 d/B/:|2Ag (3f/g/f/e|[D2d2][D2d2]||
